public/assets/images/icons/yellow/export/folder-group-empty2.svg

<svg width="16" height="16" xmlns="http://www.w3.org/2000/svg" viewBox="0 0 16 16" shape-rendering="geometricPrecision" fill="#ffad00"><defs><mask id="a"><rect fill="#fff" width="100%" height="100%"/><path d="M13.848-1.1L12.051.695l.286.287A4.455 4.455 0 0 0 9.23 5.236v.987h2.626v-.988c0-.491.191-.954.538-1.302l.03-.03 1.425 1.421 3.212-3.213L13.848-1.1z" fill="#000"/></mask></defs><path d="M13.848-.04l-.736.735.821.821h-.234l-.156.008A3.722 3.722 0 0 0 9.98 5.235v.237h1.126v-.237c0-.691.27-1.343.759-1.833a2.579 2.579 0 0 1 1.833-.759h.3l-.886.887.735.734L16 2.111 13.848-.04z" fill="#cb1800"/><path mask="url(#a)" d="M7.394 4.755l-.816-1.923h-3.78l-.816 1.923H.861V14h14.278V4.755H7.394zm3.044 3.549a.978.978 0 1 1 .002 1.956.978.978 0 0 1-.002-1.956zM7.733 6.062a.978.978 0 1 1 .003 1.955.978.978 0 0 1-.003-1.955zM5.567 7.145a.978.978 0 1 1 0 1.957.98.98 0 0 1 0-1.957zm1.389 4.59H4.178V10.51c0-.519.422-.944.941-.944h.894c.518 0 .943.425.943.944v1.225zm-.608-2.346a.94.94 0 0 1 .936-.905h.894c.519 0 .943.425.943.943v1.226H7.188v-.143c0-.532-.356-.976-.84-1.121zm5.48 3.505H9.05v-1.226c0-.518.421-.943.94-.943h.894c.519 0 .944.425.944.943v1.226z"/></svg>

<?xml version="1.0"?><!DOCTYPE svg PUBLIC "-//W3C//DTD SVG 1.1//EN" "http://www.w3.org/Graphics/SVG/1.1/DTD/svg11.dtd"><svg width="16px" height="16px" xmlns="http://www.w3.org/2000/svg" viewBox="0 0 16 16" shape-rendering="geometricPrecision" fill="#ffad00"><defs><mask id="export-path"><rect fill="#fff" width="100%" height="100%"/><path d="M13.848-1.1l-1.797,1.795l0.286,0.287c-1.812,0.575-3.107,2.263-3.107,4.254v0.987h2.626 V5.235c0-0.491,0.191-0.954,0.538-1.302c0.01-0.01,0.021-0.02,0.03-0.03l1.425,1.421l3.212-3.213L13.848-1.1z" fill="#000"/></mask></defs><path id="export" display="inline" d="M13.848-0.04l-0.736,0.735l0.821,0.821h-0.234 l-0.156,0.008c-1.978,0.084-3.563,1.714-3.563,3.711v0.237h1.126V5.235c0-0.691,0.27-1.343,0.759-1.833 c0.49-0.489,1.141-0.759,1.833-0.759h0.237V2.643h0.063L13.112,3.53l0.735,0.734L16,2.111L13.848-0.04z" fill="#cb1800"/><path mask="url(#export-path)" d="M7.394,4.755L6.578,2.832H2.798L1.982,4.755H0.861V14h14.278V4.755H7.394z M10.438,8.304 c0.542,0,0.979,0.438,0.979,0.979c0,0.54-0.437,0.978-0.979,0.978c-0.54,0-0.978-0.438-0.978-0.978 C9.46,8.742,9.898,8.304,10.438,8.304z M7.733,6.062c0.542,0,0.979,0.438,0.979,0.978c0,0.541-0.437,0.979-0.979,0.979 c-0.54,0-0.978-0.438-0.978-0.979C6.754,6.5,7.193,6.062,7.733,6.062z M5.567,7.145c0.542,0,0.979,0.438,0.979,0.978 c0,0.541-0.437,0.979-0.979,0.979c-0.54,0-0.979-0.438-0.979-0.979C4.588,7.583,5.027,7.145,5.567,7.145z M6.956,11.735H4.178 V10.51c0-0.519,0.422-0.944,0.941-0.944h0.894c0.518,0,0.943,0.425,0.943,0.944V11.735z M6.348,9.389 c0.02-0.502,0.43-0.905,0.936-0.905h0.894c0.519,0,0.943,0.425,0.943,0.943v1.226H7.188V10.51C7.188,9.978,6.832,9.534,6.348,9.389 z M11.828,12.894H9.05v-1.226c0-0.518,0.421-0.943,0.94-0.943h0.894c0.519,0,0.944,0.425,0.944,0.943V12.894z"/></svg>
